X: 1
T: Funny
M: 4/4
L: 1/8
R: reel
K: Dmaj
|:z|d2 cd AF D~d| cdAF DFGF |EB, ~B,2 GFED | CDEF GABc |
 ~d2 cd AF D~d | cdAF DFGF | E2 gf ed cB | (3ABA (3GFE D2 z:|
|: a | ^ga fdAa ^ga | fdAa ^ga=gf | eB B2 bagf | ed cBAB cA |
 ~d2 cd AF D~d | cdAF DFGF | E2 gf ed cB | (3ABA (3GFE D2 z :|
